X:1
T: Alexander's Reel
C:
M:C|
K:G
D2|G2D2DGAB|d2de dBGF|E2C2EEGG|cBcd cBAG|F2D2F2A2|
Ad2dd2(3ABc|d2d3e dc|B6B,C|D2G2DGAB|d2de dBGF|
E2C2EEGG|cBcd cBAG|F2D2F2A2|Ad2dd2(3ABc|d2de dcBA|G6||
(3ABc|d2B2d2g2|B6GB|dBdB eBd2|c6AB|cBcd cBA2|
F3FF2A2|Ad2d dedc|B6(3ABc|d2G2B2d2|g6GB|dBdB eBd2|
Ac2cc2AB|cBcd cBA2|F2Adf2f2|d^cde d=cBA|DG2FG2|]

